resources/icons/scopy-light/icons/logic_analyzer.svg

<?xml version="1.0" encoding="UTF-8"?>
<svg width="20px" height="21px" viewBox="0 0 20 21" version="1.1" xmlns="http://www.w3.org/2000/svg" xmlns:xlink="http://www.w3.org/1999/xlink">
    <title>logicD</title>
    <g id="logicD" stroke="none" stroke-width="1" fill="none" fill-rule="evenodd">
        <path d="M18.41,15.73 C16.78,17.88 14.13,18.89 11.11,18.89 L11.11,18.89 C6.33398496,19.0093286 2.36001222,15.2454534 2.22,10.47 C2.34204007,6.2903856 5.8199027,2.99580365 10,3.1 C13.5841796,3.01093588 16.5659322,5.83622465 16.67,9.42 C16.5795976,12.4044749 14.094899,14.755107 11.11,14.68 C8.72296416,14.7393561 6.73757869,12.8568172 6.67,10.47 C6.71960529,8.679022 8.20888106,7.26577532 10,7.31 C11.1939223,7.2842223 12.1851224,8.22630884 12.22,9.42 C12.2020281,10.015839 11.7059179,10.4851324 11.11,10.47 L11.11,12.58 C12.9011189,12.6242247 14.3903947,11.210978 14.44,9.42 C14.3724213,7.0331828 12.3870358,5.15064387 10,5.21 C7.01510099,5.134893 4.53040245,7.48552508 4.44,10.47 C4.54406785,14.0537753 7.52582039,16.8790641 11.11,16.79 C15.2900973,16.8941964 18.7679599,13.5996144 18.89,9.42 C18.7532402,4.64309119 14.7772918,0.877344807 10,1 C4.62827973,0.8660926 0.158525487,5.09894986 0,10.47 C0,16.27 4.98,21 11.11,21 L11.11,21 C14.74,21 17.95,19.84 20,17.24 L18.41,15.73 Z" id="logic" fill="#000000"></path>
    </g>
</svg>

<?xml version="1.0" encoding="UTF-8"?>
<svg width="20px" height="21px" version="1.1" viewBox="0 0 20 21" xmlns="http://www.w3.org/2000/svg">
 <g fill="#000" fill-opacity=".6" fill-rule="evenodd">
  <path d="m18.41 15.73c-1.63 2.15-4.28 3.16-7.3 3.16-4.776 0.11933-8.75-3.6445-8.89-8.42 0.12204-4.1796 3.5999-7.4742 7.78-7.37 3.5842-0.089064 6.5659 2.7362 6.67 6.32-0.090402 2.9845-2.5751 5.3351-5.56 5.26-2.387 0.059356-4.3724-1.8232-4.44-4.21 0.049605-1.791 1.5389-3.2042 3.33-3.16 1.1939-0.025778 2.1851 0.91631 2.22 2.11-0.017972 0.59584-0.51408 1.0651-1.11 1.05v2.11c1.7911 0.044225 3.2804-1.369 3.33-3.16-0.067579-2.3868-2.053-4.2694-4.44-4.21-2.9849-0.075107-5.4696 2.2755-5.56 5.26 0.10407 3.5838 3.0858 6.4091 6.67 6.32 4.1801 0.1042 7.658-3.1904 7.78-7.37-0.13676-4.7769-4.1127-8.5427-8.89-8.42-5.3717-0.13391-9.8415 4.0989-10 9.47 0 5.8 4.98 10.53 11.11 10.53 3.63 0 6.84-1.16 8.89-3.76l-1.59-1.51z"/>
 </g>
</svg>
